brandFactory_export/1.Light/Lista de consultas _1Light.svg

<?xml version="1.0" encoding="UTF-8"?>
<svg width="24px" height="24px" viewBox="0 0 24 24" version="1.1" xmlns="http://www.w3.org/2000/svg" xmlns:xlink="http://www.w3.org/1999/xlink">
    <title>1.Light/Lista de consultas _1Light</title>
    <g id="Symbols" stroke="none" stroke-width="1" fill="none" fill-rule="evenodd">
        <g id="1.Light/Lista-de-consultas-_1Light" fill="#5CB615" fill-rule="nonzero">
            <path d="M20.3159664,22.010084 C18.9579832,22.4168067 17.1731092,22.6386555 15.287395,22.6386555 C13.405042,22.6386555 11.6168067,22.4168067 10.2621849,22.010084 C8.72268908,21.5462185 7.9394958,20.9176471 7.9394958,20.1445378 L7.9394958,18.5848739 C9.33445378,18.7529412 10.7428571,18.4067227 11.8957983,17.6067227 C11.9529412,17.6436975 12.0201681,17.6705882 12.087395,17.6806723 C13.0957983,17.8252101 14.1747899,17.8991597 15.3008403,17.8991597 C17.2907563,17.8991597 19.1764706,17.6638655 20.6117647,17.2302521 C21.4252101,16.9882353 22.1109244,16.6420168 22.6386555,16.2386555 L22.6386555,20.1445378 C22.6352941,20.9210084 21.8554622,21.5462185 20.3159664,22.010084 L20.3159664,22.010084 Z M8.60504202,7.93613445 C11.2840336,7.9394958 13.4554622,10.1109244 13.4588235,12.789916 C13.4554622,15.4689076 11.2840336,17.6403361 8.60504202,17.6436975 C5.92605042,17.6403361 3.75462185,15.4689076 3.7512605,12.789916 C3.75462185,10.1109244 5.92605042,7.9394958 8.60504202,7.93613445 L8.60504202,7.93613445 Z M7.93613445,4.61848739 C8.43361345,5.01176471 9.11596639,5.34453782 9.98991597,5.61008403 C11.4285714,6.04033613 13.3142857,6.2789916 15.297479,6.2789916 C17.2840336,6.2789916 19.1697479,6.04033613 20.6084034,5.61008403 C21.4789916,5.34789916 22.1445378,5.02857143 22.6352941,4.64537815 L22.6352941,8.97815126 C22.3865546,9.44201681 21.6638655,10.0605042 20.3260504,10.4638655 C18.9781513,10.8705882 17.1932773,11.092437 15.287395,11.092437 C15.1394958,11.0890756 14.5747899,11.092437 14.1815126,11.0689076 C13.4218487,8.62521008 11.1630252,6.95798319 8.60504202,6.95462185 C8.37983193,6.95462185 8.15462185,6.97142857 7.93613445,6.99495798 L7.93613445,4.61848739 Z M10.2588235,1.61344538 C11.6033613,1.20672269 13.3915966,0.98487395 15.2840336,0.98487395 C17.1831933,0.98487395 18.9680672,1.20672269 20.312605,1.61344538 C21.6436975,2.01344538 22.4067227,2.53781513 22.5882353,3.17310924 C22.5848739,3.18319328 22.5747899,3.18991597 22.5680672,3.20336134 C22.3462185,3.78487395 21.5663866,4.29243697 20.3193277,4.66890756 C18.9714286,5.07226891 17.1865546,5.29747899 15.2941176,5.29747899 C13.4016807,5.29747899 11.6168067,5.07563025 10.2689076,4.66890756 C8.98823529,4.28235294 8.20504202,3.75798319 8.00336134,3.15630252 C8,3.14621849 7.99327731,3.1394958 7.98991597,3.12941176 C8.19495798,2.52436975 8.97478992,2 10.2588235,1.61344538 Z M14.4436975,12.7865546 C14.4436975,12.5411765 14.4235294,12.2991597 14.3932773,12.0605042 C14.7495798,12.0705882 15.1327731,12.0739496 15.2907563,12.0739496 L15.3042017,12.0739496 C17.2941176,12.0739496 19.1764706,11.8352941 20.6151261,11.405042 C21.4285714,11.1596639 22.1176471,10.8168067 22.6420168,10.4134454 L22.6420168,14.8033613 C22.3932773,15.2638655 21.6672269,15.8857143 20.3327731,16.2857143 C18.9882353,16.6890756 17.2033613,16.9142857 15.307563,16.9142857 C14.4571429,16.9142857 13.6470588,16.8571429 12.8672269,16.7731092 C13.8756303,15.6941176 14.4403361,14.2689076 14.4436975,12.7865546 L14.4436975,12.7865546 Z M20.5983193,0.668907563 C19.1663866,0.238655462 17.2773109,0 15.2840336,0 C13.2941176,0 11.4084034,0.238655462 9.97310924,0.668907563 C8.30252101,1.17310924 7.31428571,1.91932773 7.03529412,2.8907563 L7.03529412,2.89411765 C6.98151261,3.08235294 6.95462185,3.28067227 6.95462185,3.47563025 L6.95462185,7.19327731 C4.53781513,7.9092437 2.7697479,10.1445378 2.7697479,12.7865546 C2.7697479,14.2957983 3.3512605,15.6672269 4.29579832,16.702521 L0.141176471,20.8537815 C-0.0470588235,21.0487395 -0.043697479,21.3613445 0.154621849,21.5495798 C0.346218487,21.7344538 0.648739496,21.7344538 0.83697479,21.5495798 L5.01176471,17.3781513 C5.58991597,17.8319328 6.2487395,18.1747899 6.95462185,18.3831933 L6.95462185,20.1445378 C6.95462185,21.405042 7.9697479,22.3495798 9.97647059,22.9546218 C11.4252101,23.3848739 13.3109244,23.6235294 15.287395,23.6235294 C17.2672269,23.6235294 19.1529412,23.3848739 20.6016807,22.9512605 C22.6084034,22.3462185 23.6235294,21.4016807 23.6235294,20.1445378 L23.6235294,3.4789916 C23.6201681,2.21848739 22.605042,1.27394958 20.5983193,0.668907563 Z" id="Lista-de-consultas-_1Light"></path>
        </g>
    </g>
</svg>

<svg width="24" height="24" viewBox="0 0 24 24" xmlns="http://www.w3.org/2000/svg"><path d="M20.316 22.01c-1.358.407-3.143.629-5.029.629-1.882 0-3.67-.222-5.025-.629-1.54-.464-2.323-1.092-2.323-1.865v-1.56a5.735 5.735 0 003.957-.978.495.495 0 00.191.074c1.009.144 2.088.218 3.214.218 1.99 0 3.875-.235 5.31-.669.814-.242 1.5-.588 2.028-.991v3.906c-.004.776-.784 1.401-2.323 1.865zM8.605 7.936a4.86 4.86 0 014.854 4.854 4.86 4.86 0 01-4.854 4.854 4.86 4.86 0 01-4.854-4.854 4.86 4.86 0 014.854-4.854zm-.669-3.318c.498.394 1.18.727 2.054.992 1.439.43 3.324.669 5.307.669 1.987 0 3.873-.239 5.311-.669.871-.262 1.537-.581 2.027-.965v4.333c-.248.464-.971 1.083-2.309 1.486-1.348.407-3.133.628-5.039.628-.148-.003-.712 0-1.105-.023a5.85 5.85 0 00-5.577-4.114c-.225 0-.45.016-.669.04V4.618zm2.323-3.005c1.344-.406 3.133-.628 5.025-.628 1.9 0 3.684.222 5.029.628 1.33.4 2.094.925 2.275 1.56-.003.01-.013.017-.02.03-.222.582-1.002 1.09-2.249 1.466-1.348.403-3.132.628-5.025.628-1.892 0-3.677-.221-5.025-.628-1.28-.387-2.064-.911-2.266-1.513-.003-.01-.01-.017-.013-.027.205-.605.985-1.129 2.269-1.516zm4.185 11.174c0-.246-.02-.488-.05-.726.356.01.739.013.897.013h.013c1.99 0 3.872-.239 5.311-.669.814-.245 1.503-.588 2.027-.992v4.39c-.249.46-.975 1.083-2.31 1.483-1.344.403-3.129.628-5.024.628-.85 0-1.66-.057-2.44-.14a5.86 5.86 0 001.576-3.987zM20.598.669C19.166.239 17.278 0 15.284 0c-1.99 0-3.876.239-5.31.669-1.671.504-2.66 1.25-2.939 2.222v.003a2.13 2.13 0 00-.08.582v3.717c-2.417.716-4.185 2.952-4.185 5.594 0 1.509.581 2.88 1.526 3.916L.14 20.853a.49.49 0 00.014.697.49.49 0 00.682 0l4.175-4.172a5.817 5.817 0 001.943 1.005v1.762c0 1.26 1.015 2.205 3.021 2.81 1.45.43 3.335.669 5.311.669 1.98 0 3.866-.24 5.315-.673 2.006-.605 3.022-1.55 3.022-2.806V3.479c-.004-1.26-1.019-2.205-3.026-2.81z" fill="#5CB615" fill-rule="nonzero"/></svg>
